lib/svgs/table.svg

<?xml version="1.0" encoding="UTF-8"?>
<svg width="16px" height="16px" viewBox="0 0 16 16" version="1.1" xmlns="http://www.w3.org/2000/svg" xmlns:xlink="http://www.w3.org/1999/xlink">
    <!-- Generator: sketchtool 51.3 (57544) - http://www.bohemiancoding.com/sketch -->
    <title>editor/table</title>
    <desc>Created with sketchtool.</desc>
    <defs></defs>
    <g id="Icons" stroke="none" stroke-width="1" fill="none" fill-rule="evenodd">
        <g id="Web" transform="translate(-432.000000, -1424.000000)" fill="#000000">
            <g id="editor/table" transform="translate(432.000000, 1424.000000)">
                <path d="M0,1.23155453 L0,14.6286837 C0,14.9774951 0.282767526,15.2602627 0.631578947,15.2602627 L15.3684211,15.2602627 C15.7172325,15.2602627 16,14.9774951 16,14.6286837 L16,1.23155453 C16,0.882743112 15.7172325,0.599975586 15.3684211,0.599975586 L0.631578947,0.599975586 C0.282767526,0.599975586 0,0.882743112 0,1.23155453 L0,1.23155453 M1.26315789,6.5521287 L4.68899522,6.5521287 L4.68899522,14.0122766 L1.26315789,14.0174458 M14.7396062,6.5521287 L14.7439847,13.9971048 L5.95215311,14.0103706 L5.95215311,6.5521287 M14.7388634,5.2889708 L1.26315789,5.2889708 L1.26315789,1.88120102 L14.7368421,1.85209796" id="Shape"></path>
            </g>
        </g>
    </g>
</svg>

<svg xmlns="http://www.w3.org/2000/svg" viewBox="0 0 16 16">
    <path d="M0 1.232v13.397c0 .348.283.631.632.631h14.736A.632.632 0 0 0 16 14.63V1.232A.632.632 0 0 0 15.368.6H.632A.632.632 0 0 0 0 1.232m1.263 5.32H4.69v7.46l-3.426.005M14.74 6.552l.004 7.445-8.792.013V6.552M14.74 5.29H1.263V1.881l13.474-.029"/>
</svg>
